X: 101
M:4/4
L:1/8
K:G
degb bgaf|gfga gedB|dega bgaf|eaab a2 ge|
dega bgaf|gfga gedc|BAGB AGED|EGFA G2 z2||

